X:153
T:Dancing Feet
R:reel
H:Scottish bagpipe tune.
Z:id:hn-reel-153
M:C|
K:A
a2ea caAe|a2ea caBc|a2ea caAe|1 faea caBe:|2 faea caBc||
|:eA~A2 ceAc|eA~A2 ceBc|eA~A2 ceAe|1 faea caBc:|2 faea caBe||

